src/assets/img/icons/envelop.svg

<?xml version="1.0" encoding="UTF-8" standalone="no"?><!DOCTYPE svg PUBLIC "-//W3C//DTD SVG 1.1//EN" "http://www.w3.org/Graphics/SVG/1.1/DTD/svg11.dtd"><svg width="100%" height="100%" viewBox="0 0 32 32" version="1.1" xmlns="http://www.w3.org/2000/svg" xmlns:xlink="http://www.w3.org/1999/xlink" xml:space="preserve" style="fill-rule:evenodd;clip-rule:evenodd;stroke-linejoin:round;stroke-miterlimit:1.41421;"><path d="M29,4l-26,0c-1.65,0 -3,1.35 -3,3l0,20c0,1.65 1.35,3 3,3l26,0c1.65,0 3,-1.35 3,-3l0,-20c0,-1.65 -1.35,-3 -3,-3Zm-16.539,13.199l-8.461,6.59l0,-15.676l8.461,9.086Zm-6.949,-9.199l20.976,0l-10.488,7.875l-10.488,-7.875l0,0Zm7.278,9.553l3.21,3.447l3.21,-3.447l6.58,8.447l-19.579,0l6.58,-8.447l-0.001,0Zm6.749,-0.354l8.461,-9.086l0,15.676l-8.461,-6.59Z" style="fill:#fff;fill-rule:nonzero;"/></svg>

<svg viewBox="0 0 32 32" xmlns="http://www.w3.org/2000/svg" fill-rule="evenodd" clip-rule="evenodd" stroke-linejoin="round" stroke-miterlimit="1.414"><path d="M29 4H3C1.35 4 0 5.35 0 7v20c0 1.65 1.35 3 3 3h26c1.65 0 3-1.35 3-3V7c0-1.65-1.35-3-3-3zM12.461 17.199L4 23.789V8.113l8.461 9.086zM5.512 8h20.976L16 15.875 5.512 8zm7.278 9.553L16 21l3.21-3.447L25.79 26H6.211l6.58-8.447h-.001zm6.749-.354L28 8.113v15.676l-8.461-6.59z" fill="#fff" fill-rule="nonzero"/></svg>
